X: 75
T: No_37_Song_After_the_Feast.krn
N: Derived from No_37_Song_After_the_Feast.krn
%%abc-version 2.0
%%abcx-abcm2ps-target-version 5.9.1 (29 Sep 2008)
%%abc-creator hum2abc beta
%%abcx-conversion-date 2019/03/15 08:35:44
%%humdrum-veritas 948487407
%%humdrum-veritas-data 135567059
%%linebreak <none>
%%barnumbers 0
L: 1/16
M: 2/4
K: Ab clef=bass
[K:clef=bass][M:2/4]z4z2 z C | 
C2A,3/F,/ F,3G, ||  
[M:3/4]G,2A,3/F,/ F,3F, F,2 z G, ||  
[M:2/4]G,2F,3/E,/ E,3C, ||  
[M:3/4]F,2E,3/C,/ C,3C, C,2 z F, ||  
[M:2/4]F,2G,3/F,/ F,3F, ||  
[M:3/4]F,2A,3/F,/ F,3F, F,2 z2 |]  



